X:1
T: Mrs. Baird of New Blyth
C:Niel Gow
R:Strathspey
Q: 128
K:D
M:4/4
L:1/16
|:B2|A2D2 A2GF E2=C2 C3E|A2D2 BAGF A2D2 BAGF|B2G2 A2F2 E2=C2 C3E|A2D2 A2GF A2D2 D2B2|
A2D2 A2GF E2=C2 C3E|A2D2 BAGF A2D2 BAGF|B2G2 A2F2 E2=C2 C3E|A2D2 A2GF A2D2 D2g2|
f3d A2d2 e2=c2 c3e|f3d A2d2 f3d A2d2|A3d f2d2 e2=c2 c3e|f3d A2d2 F2D2 D3g|
f3d A2d2 e2=c2 c3e|f3d A2d2 f3d e2c2|d3A =c3=F E2=C2 C3E|A2D2 A2GF A2D2 D2:|
